packages/icons/src/components/Logo/assets/light/redis.svg

<svg width="22" height="20" viewBox="0 0 22 20" fill="none" xmlns="http://www.w3.org/2000/svg">
<path d="M8.56677 11.8926C8.13204 12.12 5.87592 13.048 5.38991 13.3027C4.90391 13.5574 4.64363 13.5502 4.26352 13.3685C3.88342 13.1868 1.49074 12.2137 1.05713 12.0063C0.838649 11.9038 0.72718 11.8163 0.72718 11.7344V10.9089C0.72718 10.9089 3.85276 10.2307 4.35716 10.0478C4.86155 9.86503 5.036 9.86058 5.4646 10.0177C5.89319 10.1749 8.46255 10.6386 8.88669 10.7925V11.6062C8.88669 11.6909 8.78915 11.7734 8.56677 11.8921V11.8926Z" fill="#A32422"/>
<path d="M8.56677 11.0711C8.13204 11.2974 5.87592 12.2254 5.38991 12.4756C4.90391 12.7259 4.64363 12.7236 4.26352 12.5425C3.88342 12.3614 1.49074 11.3883 1.05713 11.1826C0.623514 10.9769 0.615154 10.8331 1.04041 10.6671C1.46566 10.501 3.85276 9.5663 4.35716 9.38237C4.86155 9.19845 5.036 9.19455 5.4646 9.35228C5.89319 9.51001 8.13985 10.4023 8.56175 10.5578C8.98366 10.7133 9.00317 10.8409 8.56677 11.0667V11.0711Z" fill="#DC382C"/>
<path d="M8.56677 10.5483C8.13204 10.7752 5.87592 11.7026 5.38991 11.9528C4.90391 12.2031 4.64586 12.2009 4.26575 12.0186C3.88564 11.8364 1.49074 10.8688 1.05713 10.662C0.838649 10.5584 0.72718 10.4714 0.72718 10.3889V9.5663C0.72718 9.5663 3.85276 8.88578 4.35716 8.70297C4.86155 8.52016 5.036 8.51515 5.4646 8.67455C5.89319 8.83395 8.46255 9.2932 8.88669 9.44814V10.2619C8.88669 10.3466 8.78915 10.4313 8.56677 10.5483Z" fill="#A32422"/>
<path d="M8.56677 9.72291C8.13204 9.95031 5.87592 10.8777 5.38991 11.128C4.90391 11.3782 4.64363 11.3765 4.26352 11.1949C3.88342 11.0132 1.49074 10.0439 1.05713 9.83661C0.623514 9.62928 0.615711 9.48827 1.04041 9.32218C1.4651 9.15609 3.85276 8.2192 4.35716 8.04029C4.86155 7.86138 5.036 7.85024 5.4646 8.00574C5.8932 8.16124 8.13985 9.06134 8.56175 9.21238C8.98366 9.36342 9.00317 9.49607 8.56677 9.72124V9.72291Z" fill="#DC382C"/>
<path d="M8.56677 9.15331C8.13204 9.3807 5.87592 10.3087 5.38991 10.5584C4.90391 10.8081 4.64586 10.8064 4.26575 10.6253C3.88564 10.4441 1.49074 9.47378 1.05713 9.267C0.838649 9.16445 0.72718 9.07695 0.72718 8.99446V8.16904C0.72718 8.16904 3.85276 7.49075 4.35716 7.3085C4.86155 7.12625 5.036 7.12068 5.4646 7.27785C5.89319 7.43502 8.46143 7.89873 8.88557 8.05367V8.86739C8.88669 8.95322 8.78915 9.03682 8.56677 9.15331Z" fill="#A32422"/>
<path d="M8.56677 8.329C8.13204 8.55193 5.87592 9.48548 5.38991 9.7335C4.90391 9.98152 4.64363 9.98096 4.26352 9.80038C3.88342 9.6198 1.49074 8.64835 1.05713 8.44214C0.623514 8.23592 0.615154 8.09268 1.04041 7.92659C1.46566 7.76051 3.85276 6.82417 4.35716 6.64247C4.86155 6.46078 5.036 6.45521 5.4646 6.61238C5.89319 6.76955 8.13985 7.66297 8.56175 7.81791C8.98366 7.97285 9.00317 8.1016 8.56677 8.32732V8.329Z" fill="#DC382C"/>
<path d="M4.93512 7.1569L5.47352 6.98022L5.32749 7.32912L5.87536 7.53422L5.16921 7.60779L5.01036 7.98902L4.7551 7.56376L3.93859 7.49019L4.54833 7.2706L4.36496 6.93285L4.93512 7.1569Z" fill="white"/>
<path d="M4.96912 9.38237L3.64933 8.83451L5.53984 8.54413L4.96912 9.38237Z" fill="white"/>
<path d="M3.13936 7.74601C3.6967 7.74601 4.14983 7.92158 4.14983 8.13615C4.14983 8.35073 3.69559 8.5263 3.13936 8.5263C2.58313 8.5263 2.12834 8.35073 2.12834 8.13615C2.12834 7.92158 2.58146 7.74601 3.13936 7.74601Z" fill="white"/>
<path d="M6.71193 7.63845L7.83052 8.08042L6.71305 8.52239L6.71193 7.63845Z" fill="#741113"/>
<path d="M6.71193 7.63845L6.71305 8.52239L6.59155 8.56977L5.47351 8.12779L6.71193 7.63845Z" fill="#AC2724"/>
<path d="M11.4839 8.80831C11.5804 8.70305 11.699 8.62044 11.8311 8.56642C11.9599 8.51121 12.0979 8.48077 12.238 8.47669C12.2881 8.47214 12.3386 8.47774 12.3865 8.49316C12.4344 8.50857 12.4786 8.53349 12.5167 8.56642C12.5449 8.59369 12.567 8.6266 12.5816 8.663C12.5962 8.6994 12.6029 8.73847 12.6014 8.77766C12.6019 8.85645 12.5715 8.93231 12.5167 8.98889C12.4902 9.01848 12.4576 9.04194 12.4211 9.05763C12.3846 9.07332 12.3451 9.08086 12.3054 9.07974C11.9576 9.11039 11.475 9.45706 11.475 9.92801V10.997C11.4727 11.0764 11.4402 11.1518 11.384 11.2079C11.3278 11.264 11.2523 11.2964 11.1729 11.2985C11.1323 11.3 11.0919 11.2923 11.0546 11.2763C11.0173 11.2602 10.984 11.236 10.9572 11.2054C10.929 11.1779 10.9065 11.1451 10.891 11.1089C10.8755 11.0726 10.8673 11.0336 10.8669 10.9942V8.76484C10.8673 8.72541 10.8754 8.68644 10.8909 8.65018C10.9064 8.61392 10.9289 8.5811 10.9572 8.55361C11.0234 8.50587 11.1025 8.47943 11.1841 8.47781C11.2634 8.47937 11.3391 8.51156 11.3953 8.56766C11.4515 8.62375 11.4839 8.69939 11.4856 8.77877L11.4839 8.80831Z" fill="#494C4D"/>
<path d="M15.1462 9.78924C15.1466 9.86207 15.1197 9.93243 15.071 9.98653C15.0131 10.0402 14.9385 10.0721 14.8597 10.0768H13.0762C13.0931 10.2185 13.162 10.3488 13.2696 10.4424C13.4075 10.5907 13.5961 10.6816 13.798 10.6971C13.9002 10.7145 14.0049 10.7114 14.1059 10.6881C14.2069 10.6648 14.3023 10.6216 14.3865 10.5612C14.4161 10.5313 14.4515 10.5079 14.4906 10.4922C14.5296 10.4766 14.5714 10.4692 14.6134 10.4703C14.6495 10.4686 14.6855 10.4745 14.7192 10.4875C14.7529 10.5006 14.7835 10.5205 14.809 10.5461C14.8328 10.568 14.8521 10.5943 14.8657 10.6236C14.8794 10.653 14.8871 10.6847 14.8884 10.717C14.8898 10.7493 14.8847 10.7816 14.8736 10.8119C14.8625 10.8423 14.8454 10.8701 14.8235 10.8939C14.819 10.8989 14.814 10.9034 14.809 10.9084C14.6774 11.0302 14.5231 11.1249 14.3549 11.1871C14.1867 11.2492 14.0078 11.2776 13.8286 11.2707C13.6447 11.2747 13.462 11.239 13.293 11.1661C13.124 11.0932 12.9727 10.9848 12.8494 10.8482C12.5938 10.5782 12.4486 10.2223 12.4425 9.85054C12.4387 9.66545 12.4728 9.48154 12.5428 9.31014C12.6127 9.13875 12.7171 8.98351 12.8494 8.85401C12.97 8.72264 13.1171 8.61838 13.281 8.54814C13.445 8.47791 13.6219 8.44329 13.8002 8.4466C13.9736 8.43998 14.1465 8.47024 14.3073 8.53538C14.4681 8.60052 14.6133 8.69906 14.7332 8.82447C14.989 9.06956 15.1409 9.40358 15.1574 9.75747V9.78701L15.1462 9.78924ZM13.803 8.98945C13.6154 8.99265 13.4351 9.06237 13.2942 9.18619C13.1741 9.28711 13.0895 9.42384 13.0528 9.57633H14.6374C14.5929 9.42309 14.4968 9.28996 14.3654 9.19957C14.2067 9.07166 14.0116 8.99732 13.808 8.98722" fill="#494C4D"/>
<path d="M17.9859 10.9663C17.9838 11.0457 17.9513 11.1212 17.8953 11.1774C17.8392 11.2336 17.7637 11.2662 17.6843 11.2684C17.6148 11.2657 17.5479 11.2407 17.4935 11.1971C17.4392 11.1536 17.4002 11.0938 17.3823 11.0265C17.1577 11.1873 16.8876 11.2721 16.6115 11.2684C16.4311 11.2705 16.2523 11.2353 16.0861 11.1652C15.92 11.0951 15.77 10.9916 15.6456 10.861C15.5153 10.7307 15.4133 10.575 15.3457 10.4035C15.2781 10.2321 15.2464 10.0486 15.2527 9.86448C15.2503 9.49423 15.391 9.13738 15.6456 8.8685C15.7691 8.73564 15.9185 8.62946 16.0847 8.55652C16.2508 8.48358 16.43 8.44541 16.6115 8.44437C16.8825 8.44078 17.1472 8.5257 17.3655 8.68625V7.6312C17.3645 7.59152 17.3721 7.55207 17.3878 7.5156C17.4034 7.47913 17.4269 7.4465 17.4564 7.41997C17.4842 7.39131 17.5175 7.36852 17.5542 7.35291C17.591 7.33731 17.6305 7.32922 17.6704 7.32912C17.7101 7.32807 17.7495 7.33565 17.786 7.35133C17.8225 7.36702 17.8551 7.39044 17.8816 7.41997C17.91 7.44743 17.9326 7.48024 17.9482 7.51649C17.9638 7.55275 17.9721 7.59174 17.9725 7.6312V10.9663H17.9859ZM16.6287 10.6643C16.7291 10.6663 16.8287 10.6458 16.9201 10.6041C17.0115 10.5624 17.0923 10.5007 17.1565 10.4235C17.3009 10.2739 17.3816 10.0741 17.3816 9.86615C17.3816 9.65822 17.3009 9.45842 17.1565 9.30881C17.0902 9.23387 17.009 9.17349 16.9182 9.13147C16.8274 9.08946 16.7288 9.06672 16.6287 9.06469C16.5279 9.0612 16.4277 9.08124 16.336 9.12323C16.2443 9.16521 16.1636 9.22799 16.1004 9.30658C15.956 9.45619 15.8753 9.656 15.8753 9.86392C15.8753 10.0718 15.956 10.2717 16.1004 10.4213C16.1659 10.4971 16.2471 10.5578 16.3383 10.5994C16.4294 10.6409 16.5285 10.6623 16.6287 10.662" fill="#494C4D"/>
<path d="M18.8782 7.6312V7.7527C18.8795 7.79535 18.8719 7.8378 18.8559 7.87734C18.8398 7.91688 18.8157 7.95264 18.7851 7.98233C18.7578 8.00992 18.7246 8.03101 18.6881 8.04403C18.6515 8.05706 18.6125 8.06169 18.5739 8.05757C18.5343 8.0589 18.495 8.05156 18.4586 8.03606C18.4222 8.02056 18.3896 7.99727 18.3632 7.96784C18.3332 7.93846 18.3097 7.90318 18.294 7.86423C18.2784 7.82528 18.271 7.78351 18.2723 7.74156V7.63009C18.2725 7.59058 18.2807 7.55152 18.2963 7.51523C18.3119 7.47894 18.3346 7.44616 18.3632 7.41885C18.3905 7.3905 18.4232 7.36787 18.4594 7.35227C18.4956 7.33667 18.5345 7.32843 18.5739 7.32801C18.6136 7.32739 18.653 7.33528 18.6894 7.35114C18.7259 7.367 18.7585 7.39047 18.7851 7.41997C18.815 7.4463 18.8388 7.47885 18.8548 7.51534C18.8707 7.55183 18.8785 7.59138 18.8776 7.6312M18.3688 8.55249C18.3961 8.52394 18.4289 8.50119 18.4651 8.48558C18.5014 8.46997 18.5405 8.46183 18.58 8.46164C18.6197 8.46033 18.6592 8.46778 18.6958 8.48349C18.7323 8.49919 18.7649 8.52275 18.7912 8.55249C18.8199 8.58193 18.8423 8.61685 18.8571 8.65515C18.872 8.69346 18.879 8.73437 18.8776 8.77543V10.9831C18.88 11.0231 18.8728 11.0631 18.8568 11.0998C18.8407 11.1365 18.8161 11.1689 18.7851 11.1943C18.7578 11.2227 18.7251 11.2453 18.6889 11.2609C18.6527 11.2765 18.6138 11.2847 18.5744 11.2851C18.5347 11.2863 18.4953 11.2787 18.4588 11.263C18.4223 11.2473 18.3897 11.2239 18.3632 11.1943C18.3346 11.167 18.3119 11.1342 18.2963 11.0979C18.2807 11.0616 18.2725 11.0226 18.2723 10.9831V8.77766C18.2713 8.73624 18.2788 8.69506 18.2945 8.65669C18.3101 8.61832 18.3335 8.58361 18.3632 8.55472" fill="#494C4D"/>
<path d="M21.0189 8.76372C21.0808 8.80632 21.124 8.8709 21.1399 8.9443C21.1521 9.02105 21.1416 9.09969 21.1098 9.17058C21.0665 9.23189 21.0019 9.27482 20.9286 9.29097C20.85 9.30547 20.7689 9.28931 20.7018 9.24583C20.4906 9.11039 20.3256 9.03515 20.1891 9.03515C20.0684 9.02738 19.9493 9.06473 19.8546 9.13993C19.7945 9.18563 19.7644 9.21573 19.7644 9.24583C19.7602 9.27208 19.7655 9.29896 19.7794 9.32162C19.7966 9.3402 19.817 9.3555 19.8396 9.36677C19.9627 9.44412 20.1027 9.49058 20.2476 9.5022C20.4352 9.53314 20.6179 9.58939 20.7904 9.66941C20.9426 9.73297 21.0698 9.84453 21.1527 9.98709C21.2065 10.0702 21.2434 10.1631 21.2612 10.2604C21.2789 10.3578 21.2772 10.4578 21.2562 10.5545C21.2352 10.6512 21.1952 10.7428 21.1386 10.824C21.082 10.9052 21.0099 10.9744 20.9264 11.0277C20.7153 11.1786 20.4614 11.2579 20.2019 11.2539C19.8546 11.2539 19.523 11.1185 19.2059 10.8638C19.1482 10.813 19.1107 10.7432 19.1 10.6671C19.0948 10.6106 19.1062 10.5538 19.133 10.5038C19.1597 10.4538 19.2005 10.4127 19.2503 10.3857C19.3002 10.3586 19.3568 10.3468 19.4133 10.3516C19.4698 10.3565 19.5237 10.3778 19.5682 10.4129C19.7348 10.5714 19.9569 10.658 20.1868 10.6542C20.3205 10.6588 20.4523 10.6218 20.5641 10.5483C20.6243 10.4881 20.67 10.443 20.67 10.3973C20.67 10.3516 20.67 10.3371 20.655 10.3221C20.655 10.3064 20.6243 10.2769 20.5792 10.2619C20.4414 10.1767 20.2868 10.1223 20.1261 10.1025C19.9468 10.0766 19.7733 10.0201 19.6133 9.93526C19.4668 9.86377 19.3418 9.75474 19.251 9.61925C19.1916 9.51321 19.1607 9.39357 19.1613 9.27202C19.1611 9.14944 19.1912 9.02871 19.2491 8.92064C19.307 8.81258 19.3908 8.72056 19.4929 8.65281C19.6974 8.51346 19.9394 8.43977 20.1868 8.44158C20.441 8.45718 20.7152 8.56197 21.0167 8.75871" fill="#494C4D"/>
</svg>

<svg xmlns="http://www.w3.org/2000/svg" width="22" height="20" fill="none" viewBox="0 0 22 20">
    <path fill="#a32422" d="M8.567 11.893c-.435.227-2.691 1.155-3.177 1.41s-.746.247-1.126.065c-.38-.181-2.773-1.154-3.207-1.362q-.328-.151-.33-.272v-.825s3.126-.678 3.63-.861c.505-.183.679-.187 1.108-.03.428.157 2.998.62 3.422.774v.814c0 .085-.098.167-.32.286"/>
    <path fill="#dc382c" d="M8.567 11.071c-.435.226-2.691 1.154-3.177 1.405-.486.25-.746.248-1.126.066-.38-.18-2.773-1.154-3.207-1.36-.433-.205-.442-.349-.017-.515.426-.166 2.813-1.1 3.317-1.285.505-.184.679-.187 1.108-.03.428.158 2.675 1.05 3.097 1.206s.441.283.005.509z"/>
    <path fill="#a32422" d="M8.567 10.548c-.435.227-2.691 1.155-3.177 1.405s-.744.248-1.124.066c-.38-.183-2.775-1.15-3.209-1.357-.218-.104-.33-.19-.33-.273v-.823s3.126-.68 3.63-.863c.505-.183.679-.188 1.108-.028.428.159 2.998.618 3.422.773v.814c0 .085-.098.17-.32.286"/>
    <path fill="#dc382c" d="M8.567 9.723c-.435.227-2.691 1.155-3.177 1.405s-.746.248-1.126.067c-.38-.182-2.773-1.151-3.207-1.358s-.441-.349-.017-.515c.425-.166 2.813-1.103 3.317-1.282.505-.179.679-.19 1.108-.034.428.155 2.675 1.055 3.097 1.206s.441.284.005.51"/>
    <path fill="#a32422" d="M8.567 9.153c-.435.228-2.691 1.156-3.177 1.405s-.744.248-1.124.067c-.38-.18-2.775-1.151-3.209-1.358-.218-.103-.33-.19-.33-.273V8.17s3.126-.678 3.63-.86c.505-.183.679-.188 1.108-.031.428.157 2.996.62 3.42.776v.813c.002.086-.096.17-.318.286"/>
    <path fill="#dc382c" d="M8.567 8.329c-.435.223-2.691 1.156-3.177 1.404-.486.249-.746.248-1.126.067-.38-.18-2.773-1.152-3.207-1.358s-.442-.35-.017-.515c.426-.166 2.813-1.103 3.317-1.285.505-.181.679-.187 1.108-.03.428.158 2.675 1.051 3.097 1.206s.441.284.005.51z"/>
    <path fill="#fff" d="m4.935 7.157.539-.177-.147.35.548.204-.706.074-.159.381-.255-.425-.816-.074.61-.22-.184-.337zm.035 2.225-1.32-.547 1.89-.29zM3.14 7.746c.557 0 1.01.176 1.01.39s-.454.39-1.01.39c-.557 0-1.012-.175-1.012-.39 0-.214.453-.39 1.011-.39"/>
    <path fill="#741113" d="m6.712 7.638 1.119.442-1.118.442z"/>
    <path fill="#ac2724" d="m6.712 7.638.001.884-.121.048-1.118-.442z"/>
    <path fill="#494c4d" d="M11.484 8.808a1 1 0 0 1 .347-.242q.195-.082.407-.09a.37.37 0 0 1 .279.09.28.28 0 0 1 .084.212.3.3 0 0 1-.084.21.27.27 0 0 1-.212.092c-.347.03-.83.377-.83.848v1.069a.31.31 0 0 1-.302.302.28.28 0 0 1-.216-.094.3.3 0 0 1-.09-.21v-2.23a.3.3 0 0 1 .09-.211.4.4 0 0 1 .227-.076.31.31 0 0 1 .302.3zm3.662.982a.3.3 0 0 1-.075.197.34.34 0 0 1-.211.09h-1.784a.57.57 0 0 0 .194.365.8.8 0 0 0 .528.255.78.78 0 0 0 .588-.136.3.3 0 0 1 .227-.09.26.26 0 0 1 .196.075.246.246 0 0 1 .014.348l-.014.014a1.37 1.37 0 0 1-.98.363 1.28 1.28 0 0 1-.98-.423c-.255-.27-.4-.626-.406-.997a1.36 1.36 0 0 1 .406-.997 1.26 1.26 0 0 1 .951-.407 1.23 1.23 0 0 1 .933.377c.256.246.408.58.424.933v.03zm-1.343-.8a.79.79 0 0 0-.75.586h1.584a.7.7 0 0 0-.272-.376.96.96 0 0 0-.557-.213m4.178 1.979a.31.31 0 0 1-.302.302.325.325 0 0 1-.302-.242 1.3 1.3 0 0 1-.77.242 1.3 1.3 0 0 1-.966-.407 1.34 1.34 0 0 1-.393-.997c-.003-.37.138-.727.393-.996a1.33 1.33 0 0 1 .965-.424c.271-.003.536.082.755.242V7.631a.28.28 0 0 1 .09-.211.3.3 0 0 1 .33-.069q.056.025.096.069a.3.3 0 0 1 .09.211v3.335zm-1.357-.302a.67.67 0 0 0 .527-.24.803.803 0 0 0 0-1.115.72.72 0 0 0-.527-.244.65.65 0 0 0-.529.242.803.803 0 0 0 0 1.114.7.7 0 0 0 .529.241m2.249-3.031v.122a.3.3 0 0 1-.093.23.26.26 0 0 1-.211.075.27.27 0 0 1-.21-.09.3.3 0 0 1-.092-.226V7.63a.3.3 0 0 1 .091-.211.3.3 0 0 1 .326-.068q.056.025.096.069a.27.27 0 0 1 .093.211m-.51.921a.295.295 0 0 1 .328-.069.3.3 0 0 1 .095.07.3.3 0 0 1 .087.222v2.208a.25.25 0 0 1-.093.211.3.3 0 0 1-.326.069.3.3 0 0 1-.096-.069.3.3 0 0 1-.09-.21V8.777a.3.3 0 0 1 .09-.223m2.656.21a.3.3 0 0 1 .12.18.4.4 0 0 1-.03.227.3.3 0 0 1-.18.12.3.3 0 0 1-.227-.045c-.211-.136-.376-.21-.513-.21a.5.5 0 0 0-.334.104c-.06.046-.09.076-.09.106a.1.1 0 0 0 .014.076.2.2 0 0 0 .06.045.9.9 0 0 0 .409.135q.282.047.542.167a.76.76 0 0 1 .363.318.75.75 0 0 1-.227 1.04c-.21.152-.465.23-.724.227-.347 0-.679-.136-.996-.39a.32.32 0 0 1-.106-.197.29.29 0 0 1 .468-.254.88.88 0 0 0 .619.241.65.65 0 0 0 .377-.106c.06-.06.106-.105.106-.15 0-.046 0-.06-.015-.076 0-.016-.03-.045-.076-.06a1.1 1.1 0 0 0-.453-.16 1.6 1.6 0 0 1-.513-.167.9.9 0 0 1-.362-.316.74.74 0 0 1 .242-.966c.204-.14.446-.213.694-.211.254.015.528.12.83.317"/>
</svg>
